X: 209
T: 210. Christe, du Beistand deiner Kreuzgemeinde
N: Derived from chor210.krn
C: Johann Sebastian Bach
%%abc-version 2.0
%%abcx-abcm2ps-target-version 5.9.1 (29 Sep 2008)
%%abc-creator hum2abc beta
%%abcx-conversion-date 2019/03/11 17:28:18
%%abc-edited-by Craig Stuart Sapp
%%humdrum-veritas 4143349735
%%humdrum-veritas-data 232270580
%%
%%barnumbers 0
L: 1/4
M: C
%%staves [1 2 3 4]
V: 1 clef=treble
V: 2 clef=treble
V: 3 clef=treble-8
V: 4 clef=bass
K: C
[V:1] D [I:setbarnb 1]| 
[V:2] A, | 
[V:3] F/G/ | 
[V:4] D,/E,/ | 
[V:1] DEF2 | 
[V:2] A,EED | 
[V:3] AAA2 | 
[V:4] F,/E,/D,/^C,/ D,/E,/F,/D,/ | 
[V:1] !fermata!E2AB | 
[V:2] !fermata!^C2EE | 
[V:3] !fermata!A2Ae | 
[V:4] !fermata!A,,2=C,/B,,/A,,/^G,,/ | 
[V:1] =cd/c/B2 | 
[V:2] AAA^G | 
[V:3] ed/e/fe/d/ | 
[V:4] A,,/C,/ F,/E,/ D,/B,,/E, | 
[V:1] !fermata!A2zc | 
[V:2] !fermata!E2xA- | 
[V:3] !fermata!c2xe | 
[V:4] !fermata!A,,2zA,, | 
[V:1] BAGG | 
[V:2] A/G/ F/E/DG- | 
[V:3] f/e//d//cBc | 
[V:4] D,/E,/F,-F,E, | 
[V:1] AGFF | 
[V:2] G/F/- F/E/- E/D/ C/D/ | 
[V:3] ccAA | 
[V:4] F,C,D,A,,/_B,,/ | 
[V:1] E2!fermata!FE | 
[V:2] C2!fermata!C^C/D/ | 
[V:3] G/A/_B!fermata!AA | 
[V:4] C,2!fermata!F,,A,, | 
[V:1] EFG2 | 
[V:2] E-E/D/- D/C/ D/=B,/ | 
[V:3] AAG2 | 
[V:4] ^C,D,/=C,/ =B,,/A,,/B,,/G,,/ | 
[V:1] !fermata!E2AB | 
[V:2] !fermata!C2AA- | 
[V:3] !fermata!G2ef | 
[V:4] !fermata!C,2C,D, | 
[V:1] cd/c/B2 | 
[V:2] A/^G/AAG | 
[V:3] ed/e/fe/d/ | 
[V:4] E,F,/E,/D,E, | 
[V:1] !fermata!A2z^F | 
[V:2] !fermata!E2xC | 
[V:3] !fermata!c2xA | 
[V:4] !fermata!A,,2zA,, | 
[V:1] GGG^F | 
[V:2] DD_ED | 
[V:3] G3/F/ _E/_B/ A/c/ | 
[V:4] _B,,=B,,C,D, | 
[V:1] !fermata!G2zE | 
[V:2] !fermata!D2x^C | 
[V:3] !fermata!_B2xA | 
[V:4] !fermata!G,,2zA,, | 
[V:1] FGE2 | 
[V:2] DD-D^C | 
[V:3] AG/_B/ A/E/A/G/ | 
[V:4] D,/C,/_B,,/G,,/A,,2 | 
[V:1] !fermata!D3 |]  
[V:2] !fermata!A,3 |]  
[V:3] !fermata!^F3 |]  
[V:4] !fermata!D,3 |]  



